public_html/assets/images/movementExample.svg

<svg version="1.1" viewBox="0.0 0.0 960.0 720.0" fill="none" stroke="none" stroke-linecap="square" stroke-miterlimit="10" xmlns:xlink="http://www.w3.org/1999/xlink" xmlns="http://www.w3.org/2000/svg"><clipPath id="p.0"><path d="m0 0l960.0 0l0 720.0l-960.0 0l0 -720.0z" clip-rule="nonzero"/></clipPath><g clip-path="url(#p.0)"><path fill="#000000" fill-opacity="0.0" d="m0 0l960.0 0l0 720.0l-960.0 0z" fill-rule="evenodd"/><path fill="#000000" fill-opacity="0.0" d="m53.6168 0l53.6168 0l0 52.658794l-53.6168 0z" fill-rule="evenodd"/><path stroke="#000000" stroke-width="1.0" stroke-linejoin="round" stroke-linecap="butt" d="m53.6168 0l53.6168 0l0 52.658794l-53.6168 0z" fill-rule="evenodd"/><path fill="#cc0000" d="m53.6168 52.658794l53.6168 0l0 52.658794l-53.6168 0z" fill-rule="evenodd"/><path stroke="#000000" stroke-width="1.0" stroke-linejoin="round" stroke-linecap="butt" d="m53.6168 52.658794l53.6168 0l0 52.658794l-53.6168 0z" fill-rule="evenodd"/><path fill="#ea9999" d="m107.2336 52.658794l53.61679 0l0 52.658794l-53.61679 0z" fill-rule="evenodd"/><path stroke="#000000" stroke-width="1.0" stroke-linejoin="round" stroke-linecap="butt" d="m107.2336 52.658794l53.61679 0l0 52.658794l-53.61679 0z" fill-rule="evenodd"/><path fill="#ffffff" d="m107.2336 0l53.61679 0l0 52.658794l-53.61679 0z" fill-rule="evenodd"/><path stroke="#000000" stroke-width="1.0" stroke-linejoin="round" stroke-linecap="butt" d="m107.2336 0l53.61679 0l0 52.658794l-53.61679 0z" fill-rule="evenodd"/><path fill="#ffffff" d="m0 0l53.6168 0l0 52.658794l-53.6168 0z" fill-rule="evenodd"/><path stroke="#000000" stroke-width="1.0" stroke-linejoin="round" stroke-linecap="butt" d="m0 0l53.6168 0l0 52.658794l-53.6168 0z" fill-rule="evenodd"/><path fill="#000000" fill-opacity="0.0" d="m0 52.658794l53.6168 0l0 52.658794l-53.6168 0z" fill-rule="evenodd"/><path stroke="#000000" stroke-width="1.0" stroke-linejoin="round" stroke-linecap="butt" d="m0 52.658794l53.6168 0l0 52.658794l-53.6168 0z" fill-rule="evenodd"/><path fill="#ffffff" d="m0 105.31759l53.6168 0l0 52.65879l-53.6168 0z" fill-rule="evenodd"/><path stroke="#000000" stroke-width="1.0" stroke-linejoin="round" stroke-linecap="butt" d="m0 105.31759l53.6168 0l0 52.65879l-53.6168 0z" fill-rule="evenodd"/><path fill="#000000" fill-opacity="0.0" d="m53.6168 105.31759l53.6168 0l0 52.65879l-53.6168 0z" fill-rule="evenodd"/><path stroke="#000000" stroke-width="1.0" stroke-linejoin="round" stroke-linecap="butt" d="m53.6168 105.31759l53.6168 0l0 52.65879l-53.6168 0z" fill-rule="evenodd"/><path fill="#ffffff" d="m107.2336 105.31759l53.61679 0l0 52.65879l-53.61679 0z" fill-rule="evenodd"/><path stroke="#000000" stroke-width="1.0" stroke-linejoin="round" stroke-linecap="butt" d="m107.2336 105.31759l53.61679 0l0 52.65879l-53.61679 0z" fill-rule="evenodd"/><path fill="#000000" fill-opacity="0.0" d="m241.95538 0l53.61679 0l0 52.658794l-53.61679 0z" fill-rule="evenodd"/><path stroke="#000000" stroke-width="1.0" stroke-linejoin="round" stroke-linecap="butt" d="m241.95538 0l53.61679 0l0 52.658794l-53.61679 0z" fill-rule="evenodd"/><path fill="#cc0000" d="m241.95538 52.658794l53.61679 0l0 52.658794l-53.61679 0z" fill-rule="evenodd"/><path stroke="#000000" stroke-width="1.0" stroke-linejoin="round" stroke-linecap="butt" d="m241.95538 52.658794l53.61679 0l0 52.658794l-53.61679 0z" fill-rule="evenodd"/><path fill="#000000" fill-opacity="0.0" d="m295.57217 52.658794l53.61679 0l0 52.658794l-53.61679 0z" fill-rule="evenodd"/><path stroke="#000000" stroke-width="1.0" stroke-linejoin="round" stroke-linecap="butt" d="m295.57217 52.658794l53.61679 0l0 52.658794l-53.61679 0z" fill-rule="evenodd"/><path fill="#ea9999" d="m295.57217 0l53.61679 0l0 52.658794l-53.61679 0z" fill-rule="evenodd"/><path stroke="#000000" stroke-width="1.0" stroke-linejoin="round" stroke-linecap="butt" d="m295.57217 0l53.61679 0l0 52.658794l-53.61679 0z" fill-rule="evenodd"/><path fill="#ffffff" d="m188.33858 0l53.616806 0l0 52.658794l-53.616806 0z" fill-rule="evenodd"/><path stroke="#000000" stroke-width="1.0" stroke-linejoin="round" stroke-linecap="butt" d="m188.33858 0l53.616806 0l0 52.658794l-53.616806 0z" fill-rule="evenodd"/><path fill="#000000" fill-opacity="0.0" d="m188.33858 52.658794l53.616806 0l0 52.658794l-53.616806 0z" fill-rule="evenodd"/><path stroke="#000000" stroke-width="1.0" stroke-linejoin="round" stroke-linecap="butt" d="m188.33858 52.658794l53.616806 0l0 52.658794l-53.616806 0z" fill-rule="evenodd"/><path fill="#ffffff" d="m188.33858 105.31759l53.616806 0l0 52.65879l-53.616806 0z" fill-rule="evenodd"/><path stroke="#000000" stroke-width="1.0" stroke-linejoin="round" stroke-linecap="butt" d="m188.33858 105.31759l53.616806 0l0 52.65879l-53.616806 0z" fill-rule="evenodd"/><path fill="#000000" fill-opacity="0.0" d="m241.95538 105.31759l53.61679 0l0 52.65879l-53.61679 0z" fill-rule="evenodd"/><path stroke="#000000" stroke-width="1.0" stroke-linejoin="round" stroke-linecap="butt" d="m241.95538 105.31759l53.61679 0l0 52.65879l-53.61679 0z" fill-rule="evenodd"/><path fill="#ffffff" d="m295.57217 105.31759l53.61679 0l0 52.65879l-53.61679 0z" fill-rule="evenodd"/><path stroke="#000000" stroke-width="1.0" stroke-linejoin="round" stroke-linecap="butt" d="m295.57217 105.31759l53.61679 0l0 52.65879l-53.61679 0z" fill-rule="evenodd"/><path fill="#000000" fill-opacity="0.0" d="m244.9685 78.98819l47.590546 0" fill-rule="evenodd"/><path stroke="#000000" stroke-width="3.0" stroke-linejoin="round" stroke-linecap="butt" d="m244.9685 78.98819l29.590546 0" fill-rule="evenodd"/><path fill="#000000" stroke="#000000" stroke-width="3.0" stroke-linecap="butt" d="m274.55905 83.94339l13.614288 -4.9552l-13.614288 -4.9552z" fill-rule="evenodd"/><path fill="#000000" fill-opacity="0.0" d="m323.18634 98.31102l-0.12597656 -38.645664" fill-rule="evenodd"/><path stroke="#000000" stroke-width="3.0" stroke-linejoin="round" stroke-linecap="butt" d="m323.18634 98.31102l-0.06729126 -20.64576" fill-rule="evenodd"/><path fill="#000000" stroke="#000000" stroke-width="3.0" stroke-linecap="butt" d="m328.07422 77.6491l-4.999542 -13.598061l-4.910797 13.630371z" fill-rule="evenodd"/><path fill="#000000" fill-opacity="0.0" d="m56.62992 79.46719l47.590553 0" fill-rule="evenodd"/><path stroke="#000000" stroke-width="3.0" stroke-linejoin="round" stroke-linecap="butt" d="m56.62992 79.46719l29.590553 0" fill-rule="evenodd"/><path fill="#000000" stroke="#000000" stroke-width="3.0" stroke-linecap="butt" d="m86.220474 84.422386l13.614288 -4.9551926l-13.614288 -4.9552z" fill-rule="evenodd"/></g></svg>

<?xml version="1.0" encoding="UTF-8" standalone="no"?>
<!DOCTYPE svg PUBLIC "-//W3C//DTD SVG 1.1//EN" "http://www.w3.org/Graphics/SVG/1.1/DTD/svg11.dtd">
<svg width="100%" height="100%" viewBox="0 0 512 232" version="1.1" xmlns="http://www.w3.org/2000/svg" xmlns:xlink="http://www.w3.org/1999/xlink" xml:space="preserve" xmlns:serif="http://www.serif.com/" style="fill-rule:evenodd;clip-rule:evenodd;stroke-linejoin:round;stroke-miterlimit:10;">
    <g transform="matrix(1,0,0,1,0.333333,0)">
        <clipPath id="_clip1">
            <rect x="0" y="0" width="960" height="720"/>
        </clipPath>
        <g clip-path="url(#_clip1)">
            <g transform="matrix(1.46625,0,0,1.46857,-0.333333,0)">
                <rect x="53.617" y="0" width="53.617" height="52.659" style="fill-opacity:0;"/>
            </g>
            <g transform="matrix(1.46625,0,0,1.46857,-0.333333,0)">
                <rect x="53.617" y="0" width="53.617" height="52.659" style="fill:none;stroke:black;stroke-width:1px;"/>
            </g>
            <g transform="matrix(1.46625,0,0,1.46857,-0.333333,0)">
                <rect x="53.617" y="52.659" width="53.617" height="52.659" style="fill:rgb(204,0,0);"/>
            </g>
            <g transform="matrix(1.46625,0,0,1.46857,-0.333333,0)">
                <rect x="53.617" y="52.659" width="53.617" height="52.659" style="fill:none;stroke:black;stroke-width:1px;"/>
            </g>
            <g transform="matrix(1.46625,0,0,1.46857,-0.333333,0)">
                <rect x="107.234" y="52.659" width="53.617" height="52.659" style="fill:rgb(234,153,153);"/>
            </g>
            <g transform="matrix(1.46625,0,0,1.46857,-0.333333,0)">
                <rect x="107.234" y="52.659" width="53.617" height="52.659" style="fill:none;stroke:black;stroke-width:1px;"/>
            </g>
            <g transform="matrix(1.46625,0,0,1.46857,-0.333333,0)">
                <rect x="107.234" y="0" width="53.617" height="52.659" style="fill:white;"/>
            </g>
            <g transform="matrix(1.46625,0,0,1.46857,-0.333333,0)">
                <rect x="107.234" y="0" width="53.617" height="52.659" style="fill:none;stroke:black;stroke-width:1px;"/>
            </g>
            <g transform="matrix(1.46625,0,0,1.46857,-0.333333,0)">
                <rect x="0" y="0" width="53.617" height="52.659" style="fill:white;"/>
            </g>
            <g transform="matrix(1.46625,0,0,1.46857,-0.333333,0)">
                <rect x="0" y="0" width="53.617" height="52.659" style="fill:none;stroke:black;stroke-width:1px;"/>
            </g>
            <g transform="matrix(1.46625,0,0,1.46857,-0.333333,0)">
                <rect x="0" y="52.659" width="53.617" height="52.659" style="fill-opacity:0;"/>
            </g>
            <g transform="matrix(1.46625,0,0,1.46857,-0.333333,0)">
                <rect x="0" y="52.659" width="53.617" height="52.659" style="fill:none;stroke:black;stroke-width:1px;"/>
            </g>
            <g transform="matrix(1.46625,0,0,1.46857,-0.333333,0)">
                <rect x="0" y="105.318" width="53.617" height="52.659" style="fill:white;"/>
            </g>
            <g transform="matrix(1.46625,0,0,1.46857,-0.333333,0)">
                <rect x="0" y="105.318" width="53.617" height="52.659" style="fill:none;stroke:black;stroke-width:1px;"/>
            </g>
            <g transform="matrix(1.46625,0,0,1.46857,-0.333333,0)">
                <rect x="53.617" y="105.318" width="53.617" height="52.659" style="fill-opacity:0;"/>
            </g>
            <g transform="matrix(1.46625,0,0,1.46857,-0.333333,0)">
                <rect x="53.617" y="105.318" width="53.617" height="52.659" style="fill:none;stroke:black;stroke-width:1px;"/>
            </g>
            <g transform="matrix(1.46625,0,0,1.46857,-0.333333,0)">
                <rect x="107.234" y="105.318" width="53.617" height="52.659" style="fill:white;"/>
            </g>
            <g transform="matrix(1.46625,0,0,1.46857,-0.333333,0)">
                <rect x="107.234" y="105.318" width="53.617" height="52.659" style="fill:none;stroke:black;stroke-width:1px;"/>
            </g>
            <g transform="matrix(1.46625,0,0,1.46857,-0.333333,0)">
                <rect x="241.955" y="0" width="53.617" height="52.659" style="fill-opacity:0;"/>
            </g>
            <g transform="matrix(1.46625,0,0,1.46857,-0.333333,0)">
                <rect x="241.955" y="0" width="53.617" height="52.659" style="fill:none;stroke:black;stroke-width:1px;"/>
            </g>
            <g transform="matrix(1.46625,0,0,1.46857,-0.333333,0)">
                <rect x="241.955" y="52.659" width="53.617" height="52.659" style="fill:rgb(204,0,0);"/>
            </g>
            <g transform="matrix(1.46625,0,0,1.46857,-0.333333,0)">
                <rect x="241.955" y="52.659" width="53.617" height="52.659" style="fill:none;stroke:black;stroke-width:1px;"/>
            </g>
            <g transform="matrix(1.46625,0,0,1.46857,-0.333333,0)">
                <rect x="295.572" y="52.659" width="53.617" height="52.659" style="fill-opacity:0;"/>
            </g>
            <g transform="matrix(1.46625,0,0,1.46857,-0.333333,0)">
                <rect x="295.572" y="52.659" width="53.617" height="52.659" style="fill:none;stroke:black;stroke-width:1px;"/>
            </g>
            <g transform="matrix(1.46625,0,0,1.46857,-0.333333,0)">
                <rect x="295.572" y="0" width="53.617" height="52.659" style="fill:rgb(234,153,153);"/>
            </g>
            <g transform="matrix(1.46625,0,0,1.46857,-0.333333,0)">
                <rect x="295.572" y="0" width="53.617" height="52.659" style="fill:none;stroke:black;stroke-width:1px;"/>
            </g>
            <g transform="matrix(1.46625,0,0,1.46857,-0.333333,0)">
                <rect x="188.339" y="0" width="53.617" height="52.659" style="fill:white;"/>
            </g>
            <g transform="matrix(1.46625,0,0,1.46857,-0.333333,0)">
                <rect x="188.339" y="0" width="53.617" height="52.659" style="fill:none;stroke:black;stroke-width:1px;"/>
            </g>
            <g transform="matrix(1.46625,0,0,1.46857,-0.333333,0)">
                <rect x="188.339" y="52.659" width="53.617" height="52.659" style="fill-opacity:0;"/>
            </g>
            <g transform="matrix(1.46625,0,0,1.46857,-0.333333,0)">
                <rect x="188.339" y="52.659" width="53.617" height="52.659" style="fill:none;stroke:black;stroke-width:1px;"/>
            </g>
            <g transform="matrix(1.46625,0,0,1.46857,-0.333333,0)">
                <rect x="188.339" y="105.318" width="53.617" height="52.659" style="fill:white;"/>
            </g>
            <g transform="matrix(1.46625,0,0,1.46857,-0.333333,0)">
                <rect x="188.339" y="105.318" width="53.617" height="52.659" style="fill:none;stroke:black;stroke-width:1px;"/>
            </g>
            <g transform="matrix(1.46625,0,0,1.46857,-0.333333,0)">
                <rect x="241.955" y="105.318" width="53.617" height="52.659" style="fill-opacity:0;"/>
            </g>
            <g transform="matrix(1.46625,0,0,1.46857,-0.333333,0)">
                <rect x="241.955" y="105.318" width="53.617" height="52.659" style="fill:none;stroke:black;stroke-width:1px;"/>
            </g>
            <g transform="matrix(1.46625,0,0,1.46857,-0.333333,0)">
                <rect x="295.572" y="105.318" width="53.617" height="52.659" style="fill:white;"/>
            </g>
            <g transform="matrix(1.46625,0,0,1.46857,-0.333333,0)">
                <rect x="295.572" y="105.318" width="53.617" height="52.659" style="fill:none;stroke:black;stroke-width:1px;"/>
            </g>
            <g transform="matrix(1.46625,0,0,1.46857,-0.333333,0)">
                <path d="M244.969,78.988L292.559,78.988" style="fill:none;"/>
            </g>
            <g transform="matrix(1.46625,0,0,1.46857,-0.333333,0)">
                <path d="M244.969,78.988L274.559,78.988" style="fill:none;stroke:black;stroke-width:3px;"/>
            </g>
            <g transform="matrix(1.46625,0,0,1.46857,-0.333333,0)">
                <path d="M274.559,83.943L288.173,78.988L274.559,74.033L274.559,83.943Z" style="stroke:black;stroke-width:3px;stroke-linejoin:miter;"/>
            </g>
            <g transform="matrix(1.46625,0,0,1.46857,-0.333333,0)">
                <path d="M323.186,98.311L323.06,59.665" style="fill:none;"/>
            </g>
            <g transform="matrix(1.46625,0,0,1.46857,-0.333333,0)">
                <path d="M323.186,98.311L323.119,77.665" style="fill:none;stroke:black;stroke-width:3px;"/>
            </g>
            <g transform="matrix(1.46625,0,0,1.46857,-0.333333,0)">
                <path d="M328.074,77.649L323.075,64.051L318.164,77.681L328.074,77.649Z" style="stroke:black;stroke-width:3px;stroke-linejoin:miter;"/>
            </g>
            <g transform="matrix(1.46625,0,0,1.46857,-0.333333,0)">
                <path d="M56.63,79.467L104.22,79.467" style="fill:none;"/>
            </g>
            <g transform="matrix(1.46625,0,0,1.46857,-0.333333,0)">
                <path d="M56.63,79.467L86.22,79.467" style="fill:none;stroke:black;stroke-width:3px;"/>
            </g>
            <g transform="matrix(1.46625,0,0,1.46857,-0.333333,0)">
                <path d="M86.22,84.422L99.835,79.467L86.22,74.512L86.22,84.422Z" style="stroke:black;stroke-width:3px;stroke-linejoin:miter;"/>
            </g>
        </g>
    </g>
</svg>
